wifi-strength-3-lock.svg

<svg fill="currentColor" viewBox="0 0 24 24"><path d="M19 10c.68 0 1.32.14 1.91.39L23.64 7C20.31 4.41 16.2 3 12 3 7.78 3 3.69 4.41.365 7 4.39 12.06 7.88 16.37 12 21.5l1-1.26V17.2c0-.96.5-1.86 1.2-2.46v-.24c0-2.44 2.2-4.5 4.8-4.5m-7-2C9 8 6.67 9 5.2 9.84l-1.94-2.4C5.9 5.85 8.91 5 12 5s6.08.86 8.7 2.45l-1.94 2.43C17.25 9 14.87 8 12 8m9.8 8v-1.5c0-1.4-1.4-2.5-2.8-2.5s-2.8 1.1-2.8 2.5V16c-.6 0-1.2.6-1.2 1.2v3.5c0 .7.6 1.3 1.2 1.3h5.5c.7 0 1.3-.6 1.3-1.2v-3.5c0-.7-.6-1.3-1.2-1.3m-1.3 0h-3v-1.5c0-.8.7-1.3 1.5-1.3s1.5.5 1.5 1.3z"/></svg>

<svg  viewBox="0 0 24 24" fill="currentColor"><path  d="M19 10C19.68 10 20.32 10.14 20.91 10.39L23.64 7C20.31 4.41 16.2 3 12 3C7.78 3 3.69 4.41 .365 7C4.39 12.06 7.88 16.37 12 21.5L13 20.24V17.2C13 16.24 13.5 15.34 14.2 14.74V14.5C14.2 12.06 16.4 10 19 10M12 8C9 8 6.67 9 5.2 9.84L3.26 7.44C5.9 5.85 8.91 5 12 5S18.08 5.86 20.7 7.45L18.76 9.88C17.25 9 14.87 8 12 8M21.8 16V14.5C21.8 13.1 20.4 12 19 12S16.2 13.1 16.2 14.5V16C15.6 16 15 16.6 15 17.2V20.7C15 21.4 15.6 22 16.2 22H21.7C22.4 22 23 21.4 23 20.8V17.3C23 16.6 22.4 16 21.8 16M20.5 16H17.5V14.5C17.5 13.7 18.2 13.2 19 13.2S20.5 13.7 20.5 14.5V16Z"/></svg>
